src/assets/images/icons/sunFog.svg

<?xml version="1.0" encoding="utf-8"?><!-- Uploaded to: SVG Repo, www.svgrepo.com, Generator: SVG Repo Mixer Tools -->
<svg width="100%" height="100%" viewBox="0 0 24 24" fill="currentColor" xmlns="http://www.w3.org/2000/svg">
<path fill-rule="evenodd" clip-rule="evenodd" d="M4.25 19C4.25 18.5858 4.58579 18.25 5 18.25H19C19.4142 18.25 19.75 18.5858 19.75 19C19.75 19.4142 19.4142 19.75 19 19.75H5C4.58579 19.75 4.25 19.4142 4.25 19ZM7.25 22C7.25 21.5858 7.58579 21.25 8 21.25H16C16.4142 21.25 16.75 21.5858 16.75 22C16.75 22.4142 16.4142 22.75 16 22.75H8C7.58579 22.75 7.25 22.4142 7.25 22Z" fill="currentColor"/>
<path d="M6.08267 15.25C5.5521 14.2858 5.25 13.1778 5.25 12C5.25 8.27208 8.27208 5.25 12 5.25C15.7279 5.25 18.75 8.27208 18.75 12C18.75 13.1778 18.4479 14.2858 17.9173 15.25H22C22.4142 15.25 22.75 15.5858 22.75 16C22.75 16.4142 22.4142 16.75 22 16.75H2C1.58579 16.75 1.25 16.4142 1.25 16C1.25 15.5858 1.58579 15.25 2 15.25H6.08267Z" fill="currentColor"/>
<path fill-rule="evenodd" clip-rule="evenodd" d="M12 1.25C12.4142 1.25 12.75 1.58579 12.75 2V3C12.75 3.41421 12.4142 3.75 12 3.75C11.5858 3.75 11.25 3.41421 11.25 3V2C11.25 1.58579 11.5858 1.25 12 1.25ZM4.39861 4.39861C4.6915 4.10572 5.16638 4.10572 5.45927 4.39861L5.85211 4.79145C6.145 5.08434 6.145 5.55921 5.85211 5.85211C5.55921 6.145 5.08434 6.145 4.79145 5.85211L4.39861 5.45927C4.10572 5.16638 4.10572 4.6915 4.39861 4.39861ZM19.6011 4.39887C19.894 4.69176 19.894 5.16664 19.6011 5.45953L19.2083 5.85237C18.9154 6.14526 18.4405 6.14526 18.1476 5.85237C17.8547 5.55947 17.8547 5.0846 18.1476 4.79171L18.5405 4.39887C18.8334 4.10598 19.3082 4.10598 19.6011 4.39887ZM1.25 12C1.25 11.5858 1.58579 11.25 2 11.25H3C3.41421 11.25 3.75 11.5858 3.75 12C3.75 12.4142 3.41421 12.75 3 12.75H2C1.58579 12.75 1.25 12.4142 1.25 12ZM20.25 12C20.25 11.5858 20.5858 11.25 21 11.25H22C22.4142 11.25 22.75 11.5858 22.75 12C22.75 12.4142 22.4142 12.75 22 12.75H21C20.5858 12.75 20.25 12.4142 20.25 12Z" fill="currentColor"/>
</svg>

<svg xmlns="http://www.w3.org/2000/svg" fill="currentColor" viewBox="0 0 24 24"><path fill-rule="evenodd" d="M4.25 19a.75.75 0 0 1 .75-.75h14a.75.75 0 0 1 0 1.5H5a.75.75 0 0 1-.75-.75Zm3 3a.75.75 0 0 1 .75-.75h8a.75.75 0 0 1 0 1.5H8a.75.75 0 0 1-.75-.75Z" clip-rule="evenodd"/><path d="M6.083 15.25a6.75 6.75 0 1 1 11.835 0H22a.75.75 0 0 1 0 1.5H2a.75.75 0 0 1 0-1.5h4.083Z"/><path fill-rule="evenodd" d="M12 1.25a.75.75 0 0 1 .75.75v1a.75.75 0 0 1-1.5 0V2a.75.75 0 0 1 .75-.75ZM4.399 4.399a.75.75 0 0 1 1.06 0l.393.392a.75.75 0 0 1-1.06 1.061l-.393-.393a.75.75 0 0 1 0-1.06Zm15.202 0a.75.75 0 0 1 0 1.06l-.393.393a.75.75 0 0 1-1.06-1.06l.393-.393a.75.75 0 0 1 1.06 0ZM1.25 12a.75.75 0 0 1 .75-.75h1a.75.75 0 0 1 0 1.5H2a.75.75 0 0 1-.75-.75Zm19 0a.75.75 0 0 1 .75-.75h1a.75.75 0 0 1 0 1.5h-1a.75.75 0 0 1-.75-.75Z" clip-rule="evenodd"/></svg>
